theme/img/top/txt_m.svg

<svg width="136" height="126" viewBox="0 0 136 126" fill="none" xmlns="http://www.w3.org/2000/svg">
<path d="M54.8516 125.614C54.2168 121.073 52.0928 113.676 48.4795 103.422L34.6367 63.5049C33.2695 59.3545 31.5605 54.0566 29.5098 47.6113C28.4355 44.1445 27.6299 41.6543 27.0928 40.1406C28.1182 52.0059 28.6064 61.918 28.5576 69.877V102.323C28.5576 112.577 28.9727 120.341 29.8027 125.614H0.286133C1.06738 119.95 1.48242 112.187 1.53125 102.323V24.1738C1.43359 13.7734 1.01855 5.98535 0.286133 0.80957H39.9102C40.6426 6.22949 42.5225 13.2852 45.5498 21.9766L68.0352 86.6494L90.374 21.9766C93.499 12.9922 95.3789 5.93652 96.0137 0.80957H135.711C134.881 7.05957 134.466 14.8477 134.466 24.1738V102.323C134.466 112.968 134.881 120.731 135.711 125.614H106.194C106.976 120.048 107.366 112.284 107.366 102.323V69.7305C107.61 61.7715 108.074 51.8594 108.758 39.9941C106.316 48.8809 104.046 56.376 101.946 62.4795L87.4443 103.495C83.6357 114.579 81.5117 121.952 81.0723 125.614H54.8516Z" fill="url(#paint0_linear_3_310)"/>
<defs>
<linearGradient id="paint0_linear_3_310" x1="-268" y1="-42.8157" x2="539.828" y2="385.126" gradientUnits="userSpaceOnUse">
<stop stop-color="#001F63"/>
<stop offset="1" stop-color="#00E1EC"/>
</linearGradient>
</defs>
</svg>

<svg xmlns="http://www.w3.org/2000/svg" width="136" height="126" fill="none"><path fill="url(#a)" d="M54.852 125.614q-.953-6.811-6.372-22.192L34.637 63.505A1701 1701 0 0 1 29.51 47.61q-1.612-5.2-2.417-7.47 1.537 17.798 1.465 29.736v32.446q0 15.381 1.245 23.291H.286q1.172-8.495 1.245-23.291v-78.15Q1.385 8.574.286.81H39.91q1.1 8.13 5.64 21.167l22.485 64.672 22.339-64.672Q95.061 8.5 96.014.81h39.697q-1.245 9.375-1.245 23.364v78.149q0 15.967 1.245 23.291h-29.517q1.172-8.35 1.172-23.291V69.731q.366-11.94 1.392-29.737-3.663 13.33-6.812 22.486l-14.502 41.015q-5.712 16.626-6.372 22.119z"/><defs><linearGradient id="a" x1="-268" x2="539.828" y1="-42.816" y2="385.126" gradientUnits="userSpaceOnUse"><stop stop-color="#001F63"/><stop offset="1" stop-color="#00E1EC"/></linearGradient></defs></svg>
